X: 132020
T: WHA'LL BE KING BUT CHARLIE
Q: "Scotch Jig."
R: Jig.
%R: jig
B: James Kerr "Merry Melodies" v.1 p.32 s.0 #20
N: This is version 2, for ABC software that understands voice overlays.
Z: 2016 John Chambers <jc:trillian.mit.edu>
M: 6/8
L: 1/8
K: D
uA |\
vd2vc ud2ue | f2g f2e | d2c d2e | f3 ABc |\
c2e  f2b | a2f e2f | d2B BAF | B3 B2 |]
|: uc |\
vd2vB BAF | d2B BAF | "^2"fed edB & "_1"d2B BAF | A3 ABc |\
d2e  f2b | a2f e2f | d2B BAF | B3 B2 :|

%%sep 1 1 500
%%sep 1 1 500

